X:16701
T:The First Month of Summer
R:Reel
S:Matt Molly/Sean Keane
H:
N:
D:Contentment is Wealth
Z:Adrian Scahill
M:2/2
L:1/8
K:G
dBB2 A2FA|DAFA defe|dBB2 ADD2|Beed egfe|\
dBB2 A2FA|DAFA defg|afge f3e|1 dBB2 egfe:|2 dBB2 e3f||\
aff2 afbf|aff2 a3b|aff2 afef|defd e3f|\
aff2 afbf|aff2 afeg|faa2 fbba|bafe f3e:||\
